website/assets/images/toolbar/details_blue.svg

<svg xmlns="http://www.w3.org/2000/svg" xml:space="preserve" viewBox="0 0 18 18"><path d="M14.5 16.5h-11c-.5 0-1-.5-1-1v-14c0-.6.5-1 1-1h11c.6 0 1 .4 1 1v14c0 .6-.4 1-1 1zm-7-13h5m-5 3h5m-5 3h5m-5 3h5m-7-9h0m0 3h0m0 3h0m0 3h0" stroke-miterlimit="10" stroke-linejoin="round" stroke-linecap="round" stroke="#3393BD" fill="none"/></svg>

<?xml version="1.0" encoding="UTF-8" standalone="no"?>
<svg
   xmlns:dc="http://purl.org/dc/elements/1.1/"
   xmlns:cc="http://creativecommons.org/ns#"
   xmlns:rdf="http://www.w3.org/1999/02/22-rdf-syntax-ns#"
   xmlns:svg="http://www.w3.org/2000/svg"
   xmlns="http://www.w3.org/2000/svg"
   xml:space="preserve"
   enable-background="new 0 0 18 18"
   viewBox="0 0 18 18"
   y="0px"
   x="0px"
   id="Layer_1"
   version="1.1"><metadata
   id="metadata46"><rdf:RDF><cc:Work
       rdf:about=""><dc:format>image/svg+xml</dc:format><dc:type
         rdf:resource="http://purl.org/dc/dcmitype/StillImage" /><dc:title></dc:title></cc:Work></rdf:RDF></metadata><defs
   id="defs44" />
<path
   id="path39"
   d="M14.5,16.5h-11  c-0.5,0-1-0.5-1-1v-14c0-0.6,0.5-1,1-1h11c0.6,0,1,0.4,1,1v14C15.5,16.1,15.1,16.5,14.5,16.5z M7.5,3.5h5 M7.5,6.5h5 M7.5,9.5h5   M7.5,12.5h5 M5.5,3.5L5.5,3.5 M5.5,6.5L5.5,6.5 M5.5,9.5L5.5,9.5 M5.5,12.5L5.5,12.5"
   stroke-miterlimit="10"
   stroke-linejoin="round"
   stroke-linecap="round"
   stroke="#3393BD"
   fill="none" />
</svg>
